symbols-de/shields/motorway_8x4.svg

<?xml version="1.0" encoding="UTF-8" standalone="no"?>
<svg
   xmlns:dc="http://purl.org/dc/elements/1.1/"
   xmlns:cc="http://creativecommons.org/ns#"
   xmlns:rdf="http://www.w3.org/1999/02/22-rdf-syntax-ns#"
   xmlns:svg="http://www.w3.org/2000/svg"
   xmlns="http://www.w3.org/2000/svg"
   xmlns:sodipodi="http://sodipodi.sourceforge.net/DTD/sodipodi-0.dtd"
   xmlns:inkscape="http://www.inkscape.org/namespaces/inkscape"
   width="100%"
   height="100%"
   viewBox="0 0 57.0 42.0"
   id="svg2"
   version="1.1"
   inkscape:version="0.91 r13725"
   sodipodi:docname="autobahn_8x4.svg">
  <metadata
     id="metadata9">
    <rdf:RDF>
      <cc:Work
         rdf:about="">
        <dc:format>image/svg+xml</dc:format>
        <dc:type
           rdf:resource="http://purl.org/dc/dcmitype/StillImage" />
        <dc:title></dc:title>
      </cc:Work>
    </rdf:RDF>
  </metadata>
  <defs
     id="defs7" />
  <sodipodi:namedview
     pagecolor="#ffffff"
     bordercolor="#666666"
     borderopacity="1"
     objecttolerance="10"
     gridtolerance="10"
     guidetolerance="10"
     inkscape:pageopacity="0"
     inkscape:pageshadow="2"
     inkscape:window-width="1144"
     inkscape:window-height="724"
     id="namedview5"
     showgrid="false"
     inkscape:zoom="5.6190476"
     inkscape:cx="28.5"
     inkscape:cy="21"
     inkscape:window-x="372"
     inkscape:window-y="242"
     inkscape:window-maximized="0"
     inkscape:current-layer="svg2" />
  <path
     style="fill:#365eaf;fill-opacity:1;stroke:#0528a2;stroke-width:1;stroke-miterlimit:4;stroke-dasharray:none;stroke-opacity:1"
     d="m 28.500001,0.4999987 c -0.401432,0 -0.601563,0.0033 -0.601563,0.011719 L 1.404447,2.2812489 C 0.802297,2.3660989 0.5,2.4943614 0.5,2.6640614 c 0,12.2239586 0,24.4479166 0,36.6718756 0,0.169699 0.302295,0.297965 0.904447,0.382812 l 26.493991,1.769531 c 0,0.0085 0.200135,0.01172 0.601563,0.01172 0.401434,0 0.601562,-0.0033 0.601562,-0.01172 l 26.493991,-1.769531 c 0.602153,-0.08485 0.904447,-0.213113 0.904447,-0.382812 0,-12.223958 0,-24.447917 0,-36.6718756 0,-0.1697 -0.302294,-0.2979645 -0.904447,-0.3828125 L 29.101563,0.5117175 c 0,-0.0085 -0.200135,-0.011719 -0.601562,-0.011719 z"
     id="path6"
     inkscape:connector-curvature="0"
     sodipodi:nodetypes="sccccccsccccccs" />
</svg>

<?xml version="1.0" encoding="UTF-8"?>
<svg xmlns="http://www.w3.org/2000/svg" xmlns:xlink="http://www.w3.org/1999/xlink" width="59pt" height="54pt" viewBox="0 0 59 54" version="1.1">
<g id="surface1">
<path style="fill-rule:nonzero;fill:rgb(21.176471%,36.862745%,68.627451%);fill-opacity:1;stroke-width:1;stroke-linecap:butt;stroke-linejoin:miter;stroke:rgb(1.960784%,15.686275%,63.529412%);stroke-opacity:1;stroke-miterlimit:4;" d="M 28.5 0.501302 C 28.099974 0.501302 27.89996 0.50434 27.89996 0.510417 L 1.403867 2.281684 C 0.803827 2.366753 0.498146 2.494358 0.498146 2.664497 C 0.498146 14.887153 0.498146 27.112847 0.498146 39.335503 C 0.498146 39.505642 0.803827 39.633247 1.403867 39.718316 L 27.89996 41.489583 C 27.89996 41.49566 28.099974 41.498698 28.5 41.498698 C 28.900026 41.498698 29.10004 41.49566 29.10004 41.489583 L 55.596133 39.718316 C 56.196173 39.633247 56.501854 39.505642 56.501854 39.335503 C 56.501854 27.112847 56.501854 14.887153 56.501854 2.664497 C 56.501854 2.494358 56.196173 2.366753 55.596133 2.281684 L 29.10004 0.510417 C 29.10004 0.50434 28.900026 0.501302 28.5 0.501302 Z M 28.5 0.501302 " transform="matrix(1.035088,0,0,1.285714,0,0)"/>
</g>
</svg>
